X: 196
T: Ainsley's Waltz
T: Waltz, C
C: Amanda MacDougall
L: 1/16
M: 3/4
K: C
|: E6 D2E4| F6 E2F4| G6 E2C4| c8G4| A6 B2c4| G2E6G4| G6 F2E4| D8D4| 
E6 D2E4| F6 E2F4| G4c4B4| A8G4| A6 B2c4| G2E6D4| C12| C8:| 
G4| A6 B2c4| c6 B2A4| G2E6C4| C8G4| A6 B2c4| G2E6C4| D6 E2D4| D12| 
A6 B2c4| c6 B2A4| G4A4B4| c6 B2A4| G2E6G4| F6 E2D4| C12| C8|| 
D: Glenn Graham/Rodney MacDonald, Traditionally Rockin', TR1
